!!!OTL: Maria sa&szlig; weinend ... (1-51), S. 126f
!!!id: K1097
**kern
*clefG2
*k[]
*C:
{8g
=1
8g
8g
8g
8a
8a
8a
=2
8g
4g}
4r
=3
{8e
=4
8e
8e
8e
8g
8g
8g
=5
4.f}
4r
=6
{8f
=7
4f
8g
4b
8b
=8
8a
4a}
4r
=9
{8a
=10
4g
8g
4cc
8cc
=11
4.g}
4r
=12
{8g
=13
4cc
8dd
4ee
8dd
=14
8dd
4cc}
4r
=15
{8cc
=16
4cc
8cc
4b
8cc
=17
4.dd}
4r
=18
{8cc
=19
4b
8a
4a
8g
=20
8b
4b}
4r
=21
{8a
=22
4g
8a
4f
8g
=23
4.e}
4r
=24
{8g
=25
4cc
8dd
4ee
8dd
=26
8dd
4cc}
4r
=27
{8cc
=28
4cc
8cc
4b
8cc
=29
4.dd}
4r
=30
{8cc
=31
4b
8a
4a
8g
=32
8b
4b}
4r
=33
{8a
=34
4g
8a
4f
8g
=35
4.e}
4r
==
*-
!!!minrhy: 8
!!!meters: 6/8 ]  ZZ[12
!!!cut: Maria sa&szlig; weinend ... (1-51), S. 126f
!!!reg: Luxemburg
!!!trd: KINTZELE, Guillaume: An der Ucht, Bd. 1, Luxemburg 1926
!!!rhy1: X  XXXXXX  XX_0_
!!!rhy2: X  XXXXXX  X_.0_
!!!key: K1097  08  C 6/8 ]  ZZ[12
!!!mod: HEPTATONIK IONISCH]  AMBITUS[8
!!!kad: 5465+1+273+1+273
!!!akz: 565_354_476_5+15_+1+3+2_+17+2_767_543_+1+3+2_+17+2_767_543_
!!!fot: 'a__b__c__d__bs'e__f__g__bs'e__f__g__
!!!for: 'a__aw_b__bw_b__bw_b__bw_b__bw_b__bw_
!!!fok: '-__/__/__^d_^a_/__Vd_\__^a_/__Vd_\__
!! PHRAS[AUFTAKTIG]
!!!fkt: Untreue
!!!bem: in der Quelle mit einer 2. Stimme versehen
!! KINTZELE
!! PR[23] 2K[12] 2G[12] 3K[0] 3G[12] 4A[2] 4Ü[0] 5A[0] 6K[0] 6G[0]
!! 7K[0] 7G[0] 8A[0] MEHR[0] SI[37] ABS[52] SR[23] SP[13]
!! ST[24] 2k[8] 2g[23] 3k[4] 3g[4] 4d[2] 4ü[0] 5d[0] 6k[0] 6g[0]
!! 7k[0] 7g[0] 8d[0] mehr[0] si[40] dm[-3] sr[31] sp[10]
!! 1F[45] 2F[42] 3F[13] 4F[0] LF[0] 2P[0] 3P[0] 4P[0] TRI[0] DF[3] AB[53]
!! TF[0] U3K[0] U3[0] U4[0] U4Ü[0] U5[2] U6K[0] U6[8] U7K[0] U7[15]
!! N1[30] N2K[0] N2[23] N3K[0] N3[19] N4[4] N4Ü[0] N5[0] N6K[0] N6[0]
!!!n7k: 0] N7[0] O1[0] O2K[0] O2[0] O3K[0] O3[0] HÖ[0
!!!RNB: symbol: &szlig; = sz ligature (UTF-8: ÃŸ)
